X: 332
T: Zicong laile gongchandang
%%abc-version 2.0
%%abcx-abcm2ps-target-version 5.9.1 (29 Sep 2008)
%%abc-creator hum2abc beta
%%abcx-conversion-date 2013/10/02 07:52:30
%%abc-edited-by Helmut Schaffrath
%%humdrum-veritas 78698891
%%humdrum-veritas-data 1151086270
%%continueall 1
%%barnumbers 0
L: 1/8
M: 4/4
K: D
e2a B dA2G [I:setbarnb 1]| 
A> B A DE4 | 
E =c=c2dA2G | 
A> B A DE4 | 
A2A Ad2e a | 
e d c B A/ B/A3- | 
A6B A | 
G2E4A2 | 
E D C B,A,4 | 
AA2EA2d G | 
AE2D EE2A | 
E D C B,A,4 |]  



